humanity-icon-theme/Humanity/mimes/16/text-x-script.svg

<?xml version="1.0" encoding="UTF-8" standalone="no"?>
<!-- Created with Inkscape (http://www.inkscape.org/) -->

<svg
   xmlns:svg="http://www.w3.org/2000/svg"
   xmlns="http://www.w3.org/2000/svg"
   xmlns:xlink="http://www.w3.org/1999/xlink"
   version="1.0"
   width="16"
   height="16"
   id="svg3334">
  <defs
     id="defs3336">
    <linearGradient
       id="linearGradient3104">
      <stop
         id="stop3106"
         style="stop-color:#aaaaaa;stop-opacity:1"
         offset="0" />
      <stop
         id="stop3108"
         style="stop-color:#c8c8c8;stop-opacity:1"
         offset="1" />
    </linearGradient>
    <linearGradient
       x1="-51.786404"
       y1="50.786446"
       x2="-51.786404"
       y2="2.9062471"
       id="linearGradient2519"
       xlink:href="#linearGradient3104"
       gradientUnits="userSpaceOnUse"
       gradientTransform="matrix(0.2537858,0,0,0.3050189,19.128982,-0.6854851)" />
    <linearGradient
       id="linearGradient3600">
      <stop
         id="stop3602"
         style="stop-color:#f4f4f4;stop-opacity:1"
         offset="0" />
      <stop
         id="stop3604"
         style="stop-color:#dbdbdb;stop-opacity:1"
         offset="1" />
    </linearGradient>
    <linearGradient
       x1="25.132275"
       y1="0.98520643"
       x2="25.132275"
       y2="47.013336"
       id="linearGradient2517"
       xlink:href="#linearGradient3600"
       gradientUnits="userSpaceOnUse"
       gradientTransform="matrix(0.3142872,0,0,0.3259268,0.4571068,-0.3222465)" />
    <linearGradient
       id="linearGradient3211">
      <stop
         id="stop3213"
         style="stop-color:#ffffff;stop-opacity:1"
         offset="0" />
      <stop
         id="stop3215"
         style="stop-color:#ffffff;stop-opacity:0"
         offset="1" />
    </linearGradient>
    <linearGradient
       x1="24"
       y1="1.9999999"
       x2="24"
       y2="46.01725"
       id="linearGradient2511"
       xlink:href="#linearGradient3211"
       gradientUnits="userSpaceOnUse"
       gradientTransform="matrix(0.2727267,0,0,0.302325,1.4545607,0.7441991)" />
    <linearGradient
       id="linearGradient8589">
      <stop
         id="stop8591"
         style="stop-color:#fefefe;stop-opacity:1"
         offset="0" />
      <stop
         id="stop8593"
         style="stop-color:#cbcbcb;stop-opacity:1"
         offset="1" />
    </linearGradient>
    <linearGradient
       x1="32.892288"
       y1="8.0590115"
       x2="36.358372"
       y2="5.4565363"
       id="linearGradient2507"
       xlink:href="#linearGradient8589"
       gradientUnits="userSpaceOnUse"
       gradientTransform="matrix(0.3091956,0,0,0.3766935,0.4761461,0.1071779)" />
    <linearGradient
       x1="22.104254"
       y1="40.124432"
       x2="22.104254"
       y2="10.035408"
       id="linearGradient2580-0"
       xlink:href="#linearGradient5031-4"
       gradientUnits="userSpaceOnUse"
       gradientTransform="matrix(0.6655579,0,0,1.4407893,-1.8234977,-35.848874)" />
    <linearGradient
       id="linearGradient5031-4">
      <stop
         id="stop5033-8"
         style="stop-color:#a3a3a3;stop-opacity:1"
         offset="0" />
      <stop
         id="stop5035-8"
         style="stop-color:#bababa;stop-opacity:1"
         offset="1" />
    </linearGradient>
  </defs>
  <g
     id="layer1">
    <path
       d="m 2.4999615,0.4999664 c 2.5206756,0 4.920542,0 7.44122,0 0.4421795,0.1617935 2.9385125,2.1328451 3.5588315,3.4091211 0,3.906246 2.6e-5,7.6846975 2.6e-5,11.5909465 -3.6666935,0 -7.3333849,0 -11.0000775,0 0,-5.000023 0,-10.0000465 0,-15.0000676 z"
       id="path4160"
       style="fill:url(#linearGradient2517);fill-opacity:1;stroke:url(#linearGradient2519);stroke-width:0.99992162;stroke-linecap:butt;stroke-linejoin:round;stroke-miterlimit:4;stroke-opacity:1;stroke-dasharray:none;stroke-dashoffset:0;display:inline" />
    <path
       d="m 12.5,4.2150736 c 0,3.3853981 0,6.8995284 0,10.2849274 -2.999999,0 -5.999999,0 -8.9999999,0 0,-4.333337 0,-8.6666684 0,-13.000001 2.0623569,0 4.1738996,0 6.2362576,0"
       id="path2435"
       style="opacity:0.6;fill:none;stroke:url(#linearGradient2511);stroke-width:0.99999994;stroke-linecap:butt;stroke-linejoin:miter;stroke-miterlimit:4;stroke-opacity:1;stroke-dasharray:none;stroke-dashoffset:0;display:inline" />
    <path
       d="M 9.2941205,0.8409023 C 10.142028,3.6448055 9,5.0341186 9,5.0341186 c 0,0 1.892807,-1.2514061 4.171354,-0.1023041 1.942856,0.9798084 0.03608,-1.008024 -0.04146,-1.129046 C 12.586944,2.9552643 10.707454,1.1696619 10.025256,0.8725867 9.9696235,0.8483603 9.5814385,0.8409023 9.2941205,0.8409023 z"
       id="path3330"
       style="fill:#b4b4b4;fill-opacity:1;fill-rule:evenodd;stroke:none;display:inline" />
    <path
       d="M 9.2941205,0.8409023 C 10.281641,0.8409023 10,4.0219212 10,4.0219212 c 0,0 2.272472,-0.5007314 3.171354,0.9098933 0.162882,0.2556128 0.03608,-1.008024 -0.04146,-1.129046 C 12.586944,2.9552643 10.707454,1.1696619 10.025256,0.8725867 9.9696235,0.8483603 9.5814385,0.8409023 9.2941205,0.8409023 z"
       id="path4474"
       style="fill:url(#linearGradient2507);fill-opacity:1;fill-rule:evenodd;stroke:none;display:inline" />
  </g>
  <path
     d="m 4,7 0,1 3.0625,0 0,-1 L 4,7 z"
     id="path3027"
     style="fill:#b78ed4;fill-opacity:1;stroke:none;display:inline" />
  <path
     d="M 8,7 8,8 12,8 12,7 8,7 z"
     id="path3023"
     style="fill:#d48eb3;fill-opacity:1;stroke:none;display:inline" />
  <path
     d="m 10,5 0,1 1.90625,0 0,-1 L 10,5 z m -3,0 0,1 2.15625,0 0,-1 L 7,5 z m -3,0 0,1 2.3125,0 0,-1 L 4,5 z M 7,3 7,4 9,4 9,3 7,3 z M 4,3 4,4 6,4 6,3 4,3 z"
     id="path2940"
     style="fill:#89adc2;fill-opacity:1;stroke:none;display:inline" />
  <path
     d="M 4,9 4,10 6,10 6,9 4,9 z"
     id="path3066"
     style="fill:#94d48e;fill-opacity:1;stroke:none;display:inline" />
  <path
     d="m 4,13 3.036746,0 0,1 L 4,14 4,13 z"
     id="path4009"
     style="fill:#de6161;fill-opacity:1;stroke:none;display:inline" />
  <path
     d="m 8,13 0,1 3.34375,0 0,-1 L 8,13 z m -4,-2 0,1 2,0 0,-1 -2,0 z M 7,9 7,10 9,10 9,9 7,9 z"
     id="path4007"
     style="fill:url(#linearGradient2580-0);fill-opacity:1;stroke:none;display:inline" />
</svg>

<?xml version="1.0" encoding="UTF-8" standalone="no"?>
<!-- Created with Inkscape (http://www.inkscape.org/) -->
<svg id="svg3334" xmlns="http://www.w3.org/2000/svg" height="16" width="16" version="1.0" xmlns:xlink="http://www.w3.org/1999/xlink">
 <defs id="defs3336">
  <linearGradient id="linearGradient2519" y2="2.9062" gradientUnits="userSpaceOnUse" x2="-51.786" gradientTransform="matrix(.25379 0 0 .30502 19.129 -.68549)" y1="50.786" x1="-51.786">
   <stop id="stop3106" style="stop-color:#aaa" offset="0"/>
   <stop id="stop3108" style="stop-color:#c8c8c8" offset="1"/>
  </linearGradient>
  <linearGradient id="linearGradient2517" y2="47.013" gradientUnits="userSpaceOnUse" x2="25.132" gradientTransform="matrix(.31429 0 0 .32593 .45711 -.32225)" y1=".98521" x1="25.132">
   <stop id="stop3602" style="stop-color:#f4f4f4" offset="0"/>
   <stop id="stop3604" style="stop-color:#dbdbdb" offset="1"/>
  </linearGradient>
  <linearGradient id="linearGradient2511" y2="46.017" gradientUnits="userSpaceOnUse" x2="24" gradientTransform="matrix(.27273 0 0 .30232 1.4546 .74420)" y1="2" x1="24">
   <stop id="stop3213" style="stop-color:#fff" offset="0"/>
   <stop id="stop3215" style="stop-color:#fff;stop-opacity:0" offset="1"/>
  </linearGradient>
  <linearGradient id="linearGradient2507" y2="5.4565" gradientUnits="userSpaceOnUse" x2="36.358" gradientTransform="matrix(.30920 0 0 .37669 .47615 .10718)" y1="8.059" x1="32.892">
   <stop id="stop8591" style="stop-color:#fefefe" offset="0"/>
   <stop id="stop8593" style="stop-color:#cbcbcb" offset="1"/>
  </linearGradient>
  <linearGradient id="linearGradient2580-0" y2="10.035" gradientUnits="userSpaceOnUse" x2="22.104" gradientTransform="matrix(.66556 0 0 1.4408 -1.8235 -35.849)" y1="40.124" x1="22.104">
   <stop id="stop5033-8" style="stop-color:#a3a3a3" offset="0"/>
   <stop id="stop5035-8" style="stop-color:#bababa" offset="1"/>
  </linearGradient>
 </defs>
 <g id="layer1">
  <path id="path4160" style="stroke-linejoin:round;stroke:url(#linearGradient2519);stroke-width:.99992;fill:url(#linearGradient2517)" d="m2.5 0.49997h7.4412c0.44218 0.16179 2.9385 2.1328 3.5588 3.4091 0 3.9062 0.000026 7.6847 0.000026 11.591h-11v-15z"/>
  <path id="path2435" style="opacity:.6;stroke:url(#linearGradient2511);fill:none" d="m12.5 4.2151v10.285h-9v-13h6.2363"/>
  <path id="path3330" style="fill:#b4b4b4;fill-rule:evenodd" d="m9.2941 0.8409c0.8479 2.8039-0.2941 4.1932-0.2941 4.1932s1.8928-1.2514 4.1714-0.1023c1.9429 0.97981 0.03608-1.008-0.04146-1.129-0.543-0.8475-2.423-2.6331-3.105-2.9302-0.0554-0.02424-0.4436-0.0317-0.7309-0.0317z"/>
  <path id="path4474" style="fill:url(#linearGradient2507);fill-rule:evenodd" d="m9.2941 0.8409c0.9879 0 0.7059 3.181 0.7059 3.181s2.2725-0.50073 3.1714 0.90989c0.16288 0.25561 0.03608-1.008-0.04146-1.129-0.543-0.8475-2.423-2.6331-3.105-2.9302-0.0554-0.02424-0.4436-0.0317-0.7309-0.0317z"/>
 </g>
 <path id="path3027" style="fill:#b78ed4" d="m4 7v1h3.0625v-1h-3.0625z"/>
 <path id="path3023" style="fill:#d48eb3" d="m8 7v1h4v-1h-4z"/>
 <path id="path2940" style="fill:#89adc2" d="m10 5v1h1.9062v-1h-1.906zm-3 0v1h2.1562v-1h-2.1562zm-3 0v1h2.3125v-1h-2.3125zm3-2v1h2v-1h-2zm-3 0v1h2v-1h-2z"/>
 <path id="path3066" style="fill:#94d48e" d="m4 9v1h2v-1h-2z"/>
 <path id="path4009" style="fill:#de6161" d="m4 13h3.0367v1h-3.0367v-1z"/>
 <path id="path4007" style="fill:url(#linearGradient2580-0)" d="m8 13v1h3.3438v-1h-3.344zm-4-2v1h2v-1h-2zm3-2v1h2v-1h-2z"/>
</svg>
